X:1
T:Bravestone
T:Bravestone
T:Two Steps from Hell
C:Two Steps from Hell
%%score { ( 1 3 ) | 2 }
L:1/8
Q:1/4=140
M:4/4
K:F
V:1 treble nm="Piano" snm="Pno."
V:3 treble 
V:2 bass 
V:1
!mf!!mf!!mf! z4 A2 c2 | d3 e d2 c2 | A2 c2 G2 F2 | G3 A G2 F2 | D4 A2 c2 | d3 e d2 c2 | %6
 A2 c2 G2 F2 | G3 A c2 A2 | D4 A2 c2 | d3 e d2 c2 | A2 c2 G2 F2 | G3 A G2 F2 | D4 A2 c2 | %13
 d3 e d2 c2 | [Af]e d4 f2 | [cg]f e4 c2 |!fff! !>![B,B]2 !>![Ff]4 z d/f/ | g2 d4 z a/_b/ | %18
 a2 d4 z g/a/ | g2 f2 e2 c2 | !^!B2 !^!f4 z d/f/ | g2 d4 z a/_b/ | a2 d'4 z g/f/ | gccc ccc z | %24
 !^!B2 !^!f4 z d/f/ | g2 d4 z a/_b/ | a2 d4 z g/a/ | g2 f2 e2 c2 | !^!B2 !^!f4 z d/f/ | %29
 g2 d4 z a/_b/ | a2 d4 z g/f/ | g4 A2 c2!mf! | [FAd]3 e d2 c2 | [DA]2 c2 G2 F2 | [DG]3 A G2 F2 | %35
 [F,A,D]4 A2 c2 | [FAd]3 e d2 c2 | [DA]2 c2 G2 F2 | [DG]3 A c2 A2 | [F,A,D]4 A2 c2 | %40
 [FAd]3 e d2 c2 | [DA]2 c2 G2 F2 | [DG]3 A G2 F2 | [F,A,D]4 A2 c2 | [FAd]3 e d2 c2 | [Af]e d4 f2 | %46
 [cg]f e4 c2 |[M:12/8][Q:3/8=140]!f! AAc dGA cde Acd | fcd fga cdf gac' | %49
 fga c'd'a c'd'f' g'a'c'' | !>![d'f'b'd'']2 [c'c'']2 [aa']2 [gg']2 [ff']2 [ee']2 | %51
[M:4/4]!fff![Q:1/4=140] !>![B,B]2 !>![Ff]4 z d/f/ | g2 d4 z a/_b/ | a2 d4 z g/a/ | g2 f2 e2 c2 | %55
 !^!B2 !^!f4 z d/f/ | g2 d4 z a/_b/ | a2 d'4 z g/f/ | gccc ccc z | !^!B2 !^!f4 z d/f/ | %60
 g2 d4 z a/_b/ | a2 d4 z g/a/ | g2 f2 e2 c2 | !^!B2 !^!f4 z d/f/ | g2 d4 z a/_b/ | a2 d4 z g/f/ | %66
 g8 |[M:12/8][Q:3/8=140] [DA]BA [DA]BA [DA]BA [DA]BA | [CA]BA [CA]BA [CA]BA [CA]Bc | %69
 [Dd]AG [Dd]AG [Dd]AG [Dd]AG | [FBdf]2 [FBdf]2 [FBdf]2 [GBdg]2 [Acea]2 [cegc']2 | %71
[M:4/4][Q:1/4=140] [dfad']2 z2 A2 d2 | e3 f e2 c2 | F4 c2 A2 | G3 A G2 F2 | D4 A2 c2 | d3 e d2 c2 | %77
 A2 c2 G2 F2 | G3 A c2 A2!p! | D4 A2 d2 | e3 f e2 c2 | F4 c2 A2 | G3 A G2 F2 | D4 A2 d2 | %84
 e3 f e2 c2 | fe d4 f2 | gf e4 c2 |!p! [FAd]8 | A6 G2 | c7 =B | A7 G | A8- | A8 |] %93
V:2
!p!!p!!p! D,A,D z D,A,D z | D,A,D z D,A,D z | C,G,C z C,G,C z | B,,F,B, z G,,D,G, z | %4
 D,A,D z D,A,D z | D,A,D z D,A,D z | C,G,C z C,G,C z | B,,F,B, z G,,D,G, z | D,A,D z D,A,D z | %9
 D,A,D z D,A,D z | C,G,C z C,G,C z | B,,F,B, z G,,D,G, z | D,A,D z D,A,D z | D,A,D z D,A,D z | %14
 D,A,D z D,A,D z | C,G,C z C,G,C z | B,,,F,,B,,D, F,B,F,D, | G,,,D,,G,,B,, D,G,D,B,, | %18
 D,,A,,D,F, A,DA,F, | C,,G,,C,E, G,CG,E, | B,,,F,,B,,D, F,B,F,D, | G,,,D,,G,,B,, D,G,D,B,, | %22
 D,,A,,D,F, A,DA,F, | C,,G,,C,E, G,CG,E, | B,,,F,,B,,D, F,B,F,D, | G,,,D,,G,,B,, D,G,D,B,, | %26
 D,,A,,D,F, A,DA,F, | C,,G,,C,E, G,CG,E, | B,,,F,,B,,D, F,B,F,D, | G,,,D,,G,,B,, D,G,D,B,, | %30
 D,,A,,D,F, A,DA,F, | C,G,CG, C,G,CG, | D,A,DA, D,A,DA, | C,G,CG, C,G,CG, | B,,F,B,F, G,,D,G,D, | %35
 D,A,DA, D,A,DA, | D,A,DA, D,A,DA, | C,G,CG, C,G,CG, | B,,F,B,F, G,,D,G,D, | D,A,DA, D,A,DA, | %40
 D,A,DA, D,A,DA, | C,G,CG, C,G,CG, | B,,F,B,F, G,,D,G,D, | D,A,DA, D,A,DA, | D,A,DA, D,A,DA, | %45
 D,G,DG, D,G,DG, | C,G,CG, C,G,CG, |[M:12/8]!mp! [A,,,A,,]3 [A,,,A,,]3 [A,,,A,,]3 [A,,,A,,]3 | %48
 [A,,,A,,]3 [A,,,A,,]3 [A,,,A,,]3 [A,,,A,,]3 | %49
!mf! [B,,,B,,][B,,,B,,][B,,,B,,] [B,,,B,,][B,,,B,,][B,,,B,,] [B,,,B,,][B,,,B,,][B,,,B,,] [B,,,B,,][B,,,B,,][B,,,B,,] | %50
 [B,,,D,,F,,B,,]2 [C,,C,]2 [B,,,B,,]2 [C,,C,]2 [B,,,B,,]2 [C,,C,]2 |[M:4/4] B,,,F,,B,,D, F,B,F,D, | %52
 G,,,D,,G,,B,, D,G,D,B,, | D,,A,,D,F, A,DA,G, | C,,G,,C,E, G,CG,E, | B,,,F,,B,,D, F,B,F,D, | %56
 G,,,D,,G,,B,, D,G,D,B,, | D,,A,,D,F, A,DA,F, | C,,G,,C,E, G,CG,E, | B,,,F,,B,,D, F,B,F,D, | %60
 G,,,D,,G,,B,, D,G,D,B,, | D,,A,,D,F, A,DA,G, | C,,G,,C,E, G,CG,E, | B,,,F,,B,,D, F,B,F,D, | %64
 G,,,D,,G,,B,, D,G,D,B,, | D,,A,,D,F, A,DA,G, | C,,G,,C,E, G,CG,E, | %67
[M:12/8]!mp! [D,,D,]2 [D,,D,]2 [D,,D,][D,,D,] [D,,D,]2 [D,,D,]2 [D,,D,][D,,D,] | %68
 [C,,C,]2 [C,,C,]2 [C,,C,][C,,C,] [C,,C,]2 [C,,C,]2 [C,,C,][C,,C,] | %69
 [G,,,G,,]2 [G,,,G,,]2 [G,,,G,,][G,,,G,,] [G,,,G,,]2 [G,,,G,,]2 [G,,,G,,][G,,,G,,] | %70
 [B,,,B,,]2 [B,,,B,,]2 [B,,,B,,]2 [C,,C,]2 [C,,C,]2 [C,,C,]2 |[M:4/4] [D,,D,]2 z2 z4 | C,8 | B,,8 | %74
 G,,8 | D,8 | C,8 | B,,8 | C,8 | D,8 | B,,8 | B,,8 | G,,8 | B,,8 | B,,8 | D,8 | C,8 | [D,,D,]8- | %88
 [D,,D,]8- | [D,,D,]8- | [D,,D,]8- | [D,,D,]8- | [D,,D,]8 |] %93
V:3
 x8 | x8 | x8 | x8 | x8 | x8 | x8 | x8 | x8 | x8 | x8 | x8 | x8 | x8 | x8 | x8 | x8 | x8 | x8 | %19
 x8 | x8 | x8 | x8 | x8 | x8 | x8 | x8 | x8 | x8 | x8 | x8 | x8 | x8 | x8 | x8 | x8 | x8 | x8 | %38
 x8 | x8 | x8 | x8 | x8 | x8 | x8 | x8 | x8 |[M:12/8] x12 | x12 | x12 | x12 |[M:4/4] x8 | x8 | x8 | %54
 x8 | x8 | x8 | x8 | x8 | x8 | x8 | x8 | x8 | x8 | x8 | x8 | x8 |[M:12/8] x12 | x12 | x12 | x12 | %71
[M:4/4] x8 | x8 | x8 | x8 | x8 | x8 | x8 | x8 | x8 | x8 | x8 | x8 | x8 | x8 | x8 | x8 | e4 f4 | %88
 x8 | x8 | x8 | x8 | x8 |] %93

